X:631
T: "Kuhreigen"
N: Z1312
O: Europa, Mitteleuropa, Emmenthal
R: Handwerker -, Bauern - Lied
M: 4/4
L: 1/8
K: A
e^d | e2dBd=cBA | B2B2z2
e^d | e2d=cdcA2 | B4z2
=cA | G2E2AGAB | =c2A2z2
e^d | e2d=cdcBG | A2z4

@@@ Tune index: 10389
